!!!!SEGMENT: pl-wumfc--n8602--001_jarecki-henryk--szkice-charakterystyczne.krn
!!!cenid: 18xx:4163
!!!COM: Jarecki, Henryk
!!!COM-rismID: pe41023315
!!!CDT:
!!!CNT:
!!!OTL: Szkice charakterystyczne
!!!PDT: 1884
!!!AGN:
!!!SMS-siglum: PL-Wumfc
!!!SMS-shelfmark: N8602
!!!SMS-variant:
!!!SMS-altvar:


!!!SMS-shelfwork: 001 W


!!!NIFC-rismSourceID: 1001166100
!!!NIFC-rismChildID: 1001166100
!!!NIFC-islandoraID: pl-wumfc:7681
!!!URL-pdf-islandora: https://repozytorium.nifc.pl/islandora/object/pl-wumfc%3A7681/datastream/PDF/view
!!!URL-scan: https://polish.musicsources.pl/pl/lokalizacje/galeria/druki-muzyczne/12679/2 @EN{Scan on Polish Music Sources Website} @PL{Skany w portalu Dziedzictwo Muzyki Polskiej w otwartym dostępie}
!!!ONB-nifc: UWAGA: w zbiorze 1. Szkice charakterystyczne (s. 2) i 2. Kłębuszek (s. 3)


!!!OMD: Andante.
!!!AIN: 1 piano
!!!key: A
**kern	**kern	**dynam
*part1	*part1	*part1
*staff2	*staff1	*
*I"[Pianoforte]	*I"[Pianoforte]	*
*I'	*I'	*
*Ipiano	*Ipiano	*
*ICklav	*ICklav	*
*clefF4	*clefG2	*
*k[f#c#g#]	*k[f#c#g#]	*
*A:	*A:	*
*M3/4	*M3/4	*
=1	=1	=1
!	!LO:TX:a:B:t=III.	!
(16AA\LL	4r	f
16E\	.	.
16A\	.	.
16c#\JJ)	.	.
8e\L	4r	.
8eJ 8A\	.	.
8D\L	(8.cc#\L	p
8eJ 8B 8G#\	.	.
.	16b\Jk	.
=2	=2	=2
(16C#\LL	2a/)	.
16E\	.	.
16A\	.	.
16c#\JJ)	.	.
8e\L	.	.
8eJ 8c# 8A\	.	.
8BB\L	(8.g#/L	.
8dJ 8G# 8E\	.	.
.	16f#/Jk)	.
=3	=3	=3
(16AA\LL	(4f#/	.
16E\	.	.
16A\	.	.
16c#\JJ)	.	.
8r	8e/)	.
8c#L 8A\	8r	.
8AA\	(8.g#/L	.
8c#J 8A\	.	.
.	16a/Jk)	.
!!LO:LB:g=original
=4	=4	=4
(16FF#\LL	4.cc#\	.
16D#X\	.	.
16A\	.	.
16B\JJ)	.	.
8d#X\L	.	.
8d#J 8B 8A\	8b\	.
8r	8.a#X/L	.
8d# 8B 8A\	.	.
.	16b/Jk	.
=5	=5	=5
(16EE/LL	2ee\	.
16E/	.	.
16G#/	.	.
16B/JJ)	.	.
8e\L	.	.
8eJ 8B 8G#\	.	.
8r	(8.eeeL 8.ee\	f
8e 8B 8G#\	.	.
.	16eee#XJk 16ee#X\	.
=6	=6	=6
(16DD/LL	4ggg# 4gg#\	.
16D/	.	.
16F#/	.	.
16B/JJ)	.	.
8d\L	8fff# 8ff#\)	.
8f#J 8d 8B\	8r	.
8AA#X\L	(8.bb#XL 8.b#X\	.
8eJ 8c# 8F#\	.	.
.	16ccc#Jk 16cc#\	.
=7	=7	=7
(16BB\LL	4eee 4ee\	.
16F#\	.	.
16B\	.	.
16d\JJ)	.	.
8f#\L	8ddd 8dd\)	.
8f#J 8d 8B\	8r	.
8r	8.f#/L	p
8d 8B 8F#\	.	.
.	16g#/Jk	.
!!LO:LB:g=original
=8	=8	=8
(16C#\LL	(8.e#X/L	.
16E#X\	.	.
16G#\	.	.
16c#\JJ)	16cc#/Jk)	.
8e#X\L	[4cc#\	.
8e#J 8c# 8G#\	.	.
8D\L	16cc#\LL]	.
.	16b\	.
8f#J 8B\	16a\	.
.	16b\JJ	.
=9	=9	=9
(16C#\LL	2cc#\	.
16E#X\	.	.
16G#\	.	.
16c#\JJ)	.	.
8e#X\L	.	.
8e#J 8c# 8G#\	.	.
8r	8.cc#\L	f
8e# 8c# 8G#\	.	.
.	16b\Jk	.
=10	=10	=10
(16FF#\LL	4b\	.
16F#\	.	.
16c#\	.	.
16en\JJ)	.	.
8f#\L	4a#X/	.
8f#J 8e 8c#\	.	.
8r	(8.fff#L 8.ff#\	.
8e 8A#X 8F#\	.	.
.	16eeeJk 16ee\	.
=11	=11	=11
(16BB\LL	4eee 4ee\	.
16F#\	.	.
16An\	.	.
16B\JJ)	.	.
8d#X\L	8ddd#X 8dd#X\)	.
8d#J 8B 8A\	8r	.
8r	8.bn/L	.
8d# 8B 8A\	.	.
.	16a/Jk	.
!!LO:LB:g=original
=12	=12	=12
(16EE\LL	4a/	.
16E\	.	.
16B\	.	.
16dn\JJ)	.	.
8e\L	4g#/	.
8eJ 8d 8B\	.	.
8r	8.eeeL 8.ee\	.
8e 8d 8G#\	.	.
.	16dddnJk 16ddn\	.
=13	=13	=13
*	*^	*
(16AA\LL	[4ccc# [4cc#\	2ryy	.
16E\	.	.	.
16A\	.	.	.
16c#\JJ)	.	.	f
8e\L	(16ccc#]LL 16cc#\]	.	.
.	16aa\	.	.
8eJ 8c# 8A\	16gg#\	.	.
.	16ff#\JJ)	.	.
8BB\L	(16ff#/LL	4g#\	.
.	16ee/	.	.
8dJ 8G# 8E\	16dd/	.	.
.	16b/JJ)	.	.
=14	=14	=14	=14
(16C#\LL	[4ee/	[4a\	.
16E\	.	.	.
16A\	.	.	.
16c#\JJ)	.	.	.
8e\L	(16ee/LL]	4a\]	pp
.	16aa/	.	.
8eJ 8c# 8A\	16gg#/	.	.
.	16ff#/JJ)	.	.
8BB\L	(16ff#/LL	4g#\	.
.	16ee/	.	.
8dJ 8G# 8E\	16dd/	.	.
.	16b/JJ)	.	.
*	*v	*v	*
=15	=15	=15
!	!LO:SIC:v:s=2gg 2ee 2cc# 2g\	!
(16AA#X\LL	2ggn 2ee 2ccn 2g\	.
16E\	.	.
16Gn\	.	.
16c#\JJ)	.	.
8e\L	.	.
8eJ 8c# 8G\	.	.
!	!LO:SIC:v:s=8.cc#L 8.a#\	!
8r	8.ccL 8.a#X\	p
8e 8c# 8G\	.	.
.	16ddJk 16b\	.
!!LO:LB:g=original
=16	=16	=16
(16FF#\LL	4.ee 4.cc#\	.
16F#\	.	.
16A#X\	.	.
16e\JJ)	.	.
8f#\L	.	.
!	!LO:TUP:a:problem=klamra łukowa	!
8eJ 8A# 8F#\	24eeLL 24cc#\	.
.	24ff# 24dd\	.
.	24eeJJ 24cc#\	.
8r	8.ddL 8.b\	.
8e 8A# 8F#\	.	.
.	16cc#Jk 16a#X\	.
=17	=17	=17
(16BB\LL	4dd 4b\	.
16F#\	.	.
16B\	.	.
16d\JJ)	.	.
8f#\L	16r	.
.	(16f#/LL	.
8dJ 8B 8F#\	16g#/	.
.	16a#X/JJ)	.
.	(16qqb/L	.
.	16qqcc#/J	.
8r	(16b\LL)	.
.	16a#\	.
8d 8B 8F#\	16b\	.
.	16cc#\JJ)	.
=18	=18	=18
.	(16qqdd/L	.
.	16qqee/J	.
!	!LO:TX:b:Bi:t=cres_cen_do.:problem=dynamics with extension lines	!LO:HP:t=cres_cen_do.
(16DD/LL	(16dd\LL)	<
16D/	16cc#\	.
16F#/	16dd\	.
16B/JJ)	16ee\JJ)	.
.	(16qqff#/L	.
.	16qqgg#/J	.
8dL 8B 8F#\	(16ff#\LL)	.
.	16ee#X\	.
8dJ 8B 8F#\	16ff#\	.
.	16gg#\JJ)	.
8D#XL 8DD#X\	(16bb\LL	.
.	16aa\	.
8f#J 8B#X 8A\	16gg#\	.
.	16ff#\JJ)	[
!!LO:PB:g=original
=19	=19	=19
(16EE/LL	(8ee\L	f
16E/	.	.
16A/	8aa\J	.
16c#/JJ)	.	.
8e\L	4a/)	.
8eJ 8c# 8A\	.	.
8r	(8.b\L	.
8e 8c# 8A\	.	.
.	16cc#\Jk	.
=20	=20	=20
.	(16qqd/L	.
.	16qqg#/J	.
(16EE\LL	[4dd\))	.
16E\	.	.
16G#\	.	.
16d\JJ)	.	.
8e\L	8dd\L]	.
!	!	!LO:DY:rj
8eJ 8d 8G#\	32cc#\LL	p
.	32dd\	.
.	32ee\	.
.	32dd\JJJ	.
8r	8.cc#\L	.
8e 8d 8G#\	.	.
.	16b\Jk	.
=21	=21	=21
(16AA\LL	2a/	.
16E\	.	.
16A\	.	.
16c#\JJ)	.	.
8e\L	.	.
8eJ 8c# 8A\	.	.
8r	8.eeeL 8.ee\	f
8e 8c# 8A\	.	.
.	16eee#XJk 16ee#X\	.
!!LO:LB:g=original
=22	=22	=22
(16DD\LL	(4ggg# (4gg#\	.
16D\	.	.
16F#\	.	.
16B\JJ)	.	.
8d\L	8fff# 8ff#\))	.
8f#J 8d 8B\	8r	.
8AA#X\L	8.bb#XL 8.b#X\	.
8eJ 8c# 8F#\	.	.
.	16ccc#Jk 16cc#\	.
=23	=23	=23
(16BB\LL	(4eee (4ee\	.
16F#\	.	.
16B\	.	.
16d\JJ)	.	.
8f#\L	4ddd 4dd\))	.
8f#J 8d 8B\	.	.
8D\L	8.f#/L	pp
8BJ 8F#\	.	.
.	16g#/Jk	.
=24	=24	=24
(16C#\LL	8.e#X/L	.
16E#X\	.	.
16G#\	.	.
16c#\JJ)	16cc#/Jk	.
8e#X\L	[4cc#\	.
8e#J 8G#\	.	.
8D\L	16cc#\LL]	.
.	16b\	.
8f#J 8B\	16an\	.
.	16b\JJ	.
=25	=25	=25
(16C#\LL	2cc#\	.
16E#X\	.	.
16G#\	.	.
16c#\JJ)	.	.
8e#X\L	.	.
8e#J 8c# 8G#\	.	.
8C#\L	8.eeeL 8.ee\	f
8enJ 8A\	.	.
.	16eee#XJk 16ee#X\	.
!!LO:LB:g=original
=26	=26	=26
(16DD/LL	(4ggg# (4gg#\	<
16D/	.	.
16F#/	.	.
16B/JJ)	.	.
8d\L	4fff# 4ff#\))	.
8dJ 8B 8F#\	.	.
8DL 8DD\	(8.eee#XL 8.ee#X\	.
8dJ 8B 8F#\	.	.
.	16fff#Jk 16ff#\)	[[
=27	=27	=27
(16C#LL 16CC#/	(4aaa (4aa\	<
16E#X/	.	.
16B/	.	.
16c#/JJ)	.	.
8e#X\L	4ggg# 4gg#\))	.
8e#J 8c# 8B\	.	.
8C#\L	(8.fff#L 8.ff#\	.
8e#J 8c# 8B\	.	.
.	16ggg#Jk 16gg#\)	[[
=28	=28	=28
(16FF#/LL	[4aaa [4aa\	ff
16C#/	.	.
16F#/	.	.
16A/JJ)	.	.
8c#\L	16aaa]LL 16aa\]	p
.	16aa\	.
8f#J 8c# 8A\	(16aa\	.
.	16gg#\JJ)	.
8r	(16gg#\LL	.
.	16ff#\)	.
8f# 8c# 8A\	(16ff#\	.
.	16ee\JJ)	.
!!LO:LB:g=original
=29	=29	=29
(16BB\LL	(16ee\LL	.
16F#\	16dd#X\)	.
16A\	(16ccc#\	.
16B\JJ)	16ccc#\JJ)	.
8d#X\L	(16ccc#\LL	.
.	16bb\)	.
8aJ 8d# 8B\	(16bb\	.
.	16aa\JJ)	.
8r	(16aa\LL	.
.	16gg#\)	.
8d# 8A 8F#\	(16gg#\	.
.	16ff#\JJ)	.
=30	=30	=30
(16CC#/LL	(16ff#\LL	.
16E/	16ee\)	.
16G#/	(16gg#\	.
16c#/JJ)	16gg#\JJ)	.
8e\L	(16gg#\LL	.
.	16ff#\)	.
8eJ 8c# 8G#\	(16ff#\	.
.	16ee\JJ)	.
8AA#X\L	(16ee\LL	.
.	16ddn\)	.
8c#J 8Gn 8E\	(16dd\	.
.	16cc#\JJ)	.
=31	=31	=31
!	!LO:TX:a:i:t=rallen&colon;	!
8BB\L	(16cc#\LL	.
.	16b\	.
8dJ 8F#\	16ff#\	.
.	16b\JJ)	.
8C#\L	(16b\LL	.
.	16a#X\	.
8eJ 8F#\	16ff#\	.
.	16a#\JJ)	.
8D\L	(16cc#\LL	.
.	16b\	.
8cnJ 8D#X\	16ff#\	.
.	16an\JJ)	.
!!LO:LB:g=original
=32	=32	=32
*	*	*^
!	!	!	!LO:DY:rj
4d 4B 4E\	4ee 4g# 4e;/	.	f
4r	(8.e/L	.	p
.	16f#'/L	.	.
8r	16g#'/	.	.
.	16a'/JJ	.	.
1r	4b\)	.	.
.	8r;	.	.
!	!	!LO:HP:b	!
.	(8.g#/L	<	mf
.	16a'/L	.	.
.	16b'/	.	.
.	16cc#'/JJ	.	.
.	4dd'\)	[	.
0ryy	(8.b\L	<	.
.	16cc#'\L	.	.
.	16dd'\	.	.
.	16ee'\JJ	[	.
.	4ffn;\)	.	f
.	8gg#\	.	.
.	4.bb\	.	.
.	8gg#\L	.	.
.	8ffn\	.	.
.	8dd\	.	.
.	8.b\	.	.
.	16a\Jk	.	.
.	(>4a/	.	.
1ryy	8g#/)	.	.
.	8r;	.	.
.	(4g#/	p	.
.	16a/LL	.	.
.	16g#/	.	.
.	16f##X/	.	.
.	16g#/JJ	.	.
.	4ff\)	.	.
8ryy	8r	pp	.
.	16qqdd#X/L	.	.
.	16qqee/	.	.
.	16qqff/J	.	.
*	*	*v	*v
!!LO:LB:g=original
=33	=33	=33
!!!OMD: a tempo. 1°.
4r	2.eeT\	.
4r	.	.
4d 4G# 4E\	.	.
=34	=34	=34
4d 4G# 4E\	2.eeT\	.
4d 4G# 4E\	.	.
4d 4G# 4E\	.	.
.	16qqdd#X/L	.
.	16qqee/J	.
=35	=35	=35
(16AA\LL	[2.aa\	.
16E\	.	.
16A\	.	.
16c#\JJ)	.	.
8e\L	.	.
8eJ 8c# 8A\	.	.
8D\L	.	.
8fnJ 8d 8A\	.	.
=36	=36	=36
(16AA\LL	2.aa\_	.
16E\	.	.
16A\	.	.
16c#\JJ)	.	.
8e\L	.	.
8eJ 8c# 8A\	.	.
8D\L	.	.
8fnJ 8d 8A\	.	.
=37	=37	=37
8e 8c# 8A\L	4aa\]	.
8r	.	.
8A 8AA\J	4r	.
8r	.	.
4r	4r	.
==	==	==
*-	*-	*-
!!!system-decoration: {(*)}
!!!RDF**kern: > = above
!!!RDF**kern: < = below
!!!ENC: Arkadiusz Malec
!!!END: 2022-09-14
!!!ENC: Andrzej Kubiczek
!!!END: 2022-11-01
!!!YEC: Copyright 2022 Narodowy Instytut Fryderyka Chopina (https://polishscores.org)
!!!YEM: License CC-BY-4.0 (https://creativecommons.org/licenses/by/4.0)
